svg/emoji_u23f8.svg

<?xml version="1.0" encoding="UTF-8"?>
<svg width="128" height="128" enable-background="new 0 0 128 128" xmlns="http://www.w3.org/2000/svg"><linearGradient id="a" x1="64" x2="64" y1="4.25" y2="123.91" gradientUnits="userSpaceOnUse"><stop stop-color="#FFAB40" offset="0"/><stop stop-color="#FF6D00" offset="1"/></linearGradient><path d="m116 124h-104c-4.42 0-8-3.58-8-8v-104c0-4.42 3.58-8 8-8h104c4.42 0 8 3.58 8 8v104c0 4.42-3.58 8-8 8z" fill="url(#a)"/><g opacity=".2"><path d="m116 7c2.76 0 5 2.24 5 5v104c0 2.76-2.24 5-5 5h-104c-2.76 0-5-2.24-5-5v-104c0-2.76 2.24-5 5-5h104m0-3h-104c-4.42 0-8 3.58-8 8v104c0 4.42 3.58 8 8 8h104c4.42 0 8-3.58 8-8v-104c0-4.42-3.58-8-8-8z" fill="#424242"/></g><g opacity=".2"><path d="m54 36c1.1 0 2 0.9 2 2v52c0 1.1-0.9 2-2 2h-12c-1.1 0-2-0.9-2-2v-52c0-1.1 0.9-2 2-2h12m0-3h-12c-2.76 0-5 2.24-5 5v52c0 2.76 2.24 5 5 5h12c2.76 0 5-2.24 5-5v-52c0-2.76-2.24-5-5-5z" fill="#424242"/></g><g opacity=".2"><path d="m86 36c1.1 0 2 0.9 2 2v52c0 1.1-0.9 2-2 2h-12c-1.1 0-2-0.9-2-2v-52c0-1.1 0.9-2 2-2h12m0-3h-12c-2.76 0-5 2.24-5 5v52c0 2.76 2.24 5 5 5h12c2.76 0 5-2.24 5-5v-52c0-2.76-2.24-5-5-5z" fill="#424242"/></g><path d="m54 92h-12c-1.1 0-2-0.9-2-2v-52c0-1.1 0.9-2 2-2h12c1.1 0 2 0.9 2 2v52c0 1.1-0.9 2-2 2z" fill="#FAFAFA"/><path d="m86 92h-12c-1.1 0-2-0.9-2-2v-52c0-1.1 0.9-2 2-2h12c1.1 0 2 0.9 2 2v52c0 1.1-0.9 2-2 2z" fill="#FAFAFA"/></svg>

<svg width="128" height="128" style="enable-background:new 0 0 128 128;" xmlns="http://www.w3.org/2000/svg" xmlns:xlink="http://www.w3.org/1999/xlink">
  <g>
    <linearGradient id="SVGID_1_" gradientUnits="userSpaceOnUse" x1="64" x2="64" y1="4.25" y2="123.9133">
      <stop offset="0" style="stop-color:#FFAB40"/>
      <stop offset="1" style="stop-color:#FF6D00"/>
    </linearGradient>
    <path d="M116,124H12c-4.42,0-8-3.58-8-8V12c0-4.42,3.58-8,8-8h104c4.42,0,8,3.58,8,8v104 C124,120.42,120.42,124,116,124z" style="fill:url(#SVGID_1_);"/>
    <g style="opacity:0.2;">
      <path d="M116,7c2.76,0,5,2.24,5,5v104c0,2.76-2.24,5-5,5H12c-2.76,0-5-2.24-5-5V12c0-2.76,2.24-5,5-5H116 M116,4H12c-4.42,0-8,3.58-8,8v104c0,4.42,3.58,8,8,8h104c4.42,0,8-3.58,8-8V12C124,7.58,120.42,4,116,4L116,4z" style="fill:#424242;"/>
    </g>
    <g style="opacity:0.2;">
      <path d="M54,36c1.1,0,2,0.9,2,2v52c0,1.1-0.9,2-2,2H42c-1.1,0-2-0.9-2-2V38c0-1.1,0.9-2,2-2H54 M54,33H42 c-2.76,0-5,2.24-5,5v52c0,2.76,2.24,5,5,5h12c2.76,0,5-2.24,5-5V38C59,35.24,56.76,33,54,33L54,33z" style="fill:#424242;"/>
    </g>
    <g style="opacity:0.2;">
      <path d="M86,36c1.1,0,2,0.9,2,2v52c0,1.1-0.9,2-2,2H74c-1.1,0-2-0.9-2-2V38c0-1.1,0.9-2,2-2H86 M86,33H74 c-2.76,0-5,2.24-5,5v52c0,2.76,2.24,5,5,5h12c2.76,0,5-2.24,5-5V38C91,35.24,88.76,33,86,33L86,33z" style="fill:#424242;"/>
    </g>
    <path d="M54,92H42c-1.1,0-2-0.9-2-2V38c0-1.1,0.9-2,2-2h12c1.1,0,2,0.9,2,2v52C56,91.1,55.1,92,54,92z" style="fill:#FAFAFA;"/>
    <path d="M86,92H74c-1.1,0-2-0.9-2-2V38c0-1.1,0.9-2,2-2h12c1.1,0,2,0.9,2,2v52C88,91.1,87.1,92,86,92z" style="fill:#FAFAFA;"/>
  </g>
</svg>
